X: 30083
T: Oíche Na Gaoithe Móire
R: polka
M: 2/4
K: Edorian
|:E2 Be|dB eB|dB BA|Bd AA/B/|
dB BE|AD BA/F/|Dd AB|FE EF:|
|:B2 dB|gf/e/ d>e|dB BA|Bd A2|
BA/B/ dB|gf/e/ d>D|Dd AB|FE E2:|

